X:1
T:Mars der gezworenen
O:traditional Flanders
N:= march of the sworns / marsxo de jxurintoj
M:4/4
L:1/8
Q:1/4=70
R:march
K:G
|: d3e/d/ Bdge | d2d/e/d/c/ B4 | de/d/B2 cd/c/A2 | Bdec BABc |
 d3e/d/ BGec | d2e/d/c/d/ g4 | dd/c/Be dBAc | BdBd B4 :|
|: f3e/f/ gfed | (3:2gfe dd d4 | (3:2Bcd dd edcB | d3c/B/ AABc |
 d2d/e/d/c/ Bgfe | dcBA c3d/e/ | dBBB gdcA | (3:2Bcd BB B4 :|]
